src/img/icons/tutores_adiam_consultas_animado.svg

<svg width="54" height="54" viewBox="0 0 54 54" fill="none" xmlns="http://www.w3.org/2000/svg">
<g clip-path="url(#clip0_478_3310)">
<path fill-rule="evenodd" clip-rule="evenodd" d="M15.6305 43.0625C16.1055 42.984 16.607 43.0333 17.0843 43.2323C23.991 46.1116 29.8218 45.9049 34.3359 43.8738C40.8852 40.9276 44.6035 34.2489 44.6035 28.5295C44.6035 18.9741 36.953 11.2162 27.53 11.2162C18.1067 11.2162 10.4564 18.9741 10.4564 28.5295C10.4564 30.0358 9.25044 31.259 7.76488 31.259C6.27931 31.259 5.07336 30.0358 5.07336 28.5295C5.07336 15.9612 15.1358 5.75755 27.53 5.75755C39.9241 5.75755 49.9866 15.9612 49.9866 28.5295C49.9866 34.438 47.0405 41.1614 41.6183 45.6729L43.7422 49.6539C44.449 50.9788 43.962 52.6365 42.6556 53.3533C41.3489 54.07 39.7142 53.5762 39.0075 52.2513L37.0645 48.6093C36.8843 48.6961 36.7026 48.7811 36.5191 48.8635C31.2337 51.2413 24.4928 51.8015 16.5566 48.8777L14.682 52.3913C13.9753 53.7163 12.3406 54.21 11.0339 53.4933C9.72744 52.7766 9.24052 51.1191 9.94728 49.7942L12.797 44.4523C13.3623 43.393 14.5209 42.8649 15.6305 43.0625ZM25.4272 30.72C25.2356 30.388 25.1243 30.0023 25.1215 29.5904L25.0283 17.0681C25.0189 15.8129 26.0162 14.7859 27.254 14.7766C28.4921 14.767 29.5045 15.7786 29.5139 17.0337L29.5915 27.4433L35.2466 27.3749C36.4844 27.3653 37.4968 28.3768 37.5062 29.632C37.5156 30.8872 36.5183 31.914 35.2802 31.9235L27.4704 32.0181C26.571 32.0251 25.7904 31.4928 25.4272 30.72Z" fill="#3D3D3D"/>
<path fill-rule="evenodd" clip-rule="evenodd" d="M52.5591 13.599C53.0237 15.0254 52.2541 16.5734 50.8415 17.0535C49.4292 17.5337 47.9052 16.7653 47.4408 15.339C46.267 11.7355 44.3882 8.83028 41.6225 6.39654C40.5044 5.41245 40.3921 3.68915 41.3721 2.55039C42.3522 1.41163 44.0557 1.28603 45.1738 2.27012C48.6797 5.35505 51.0715 9.03111 52.5591 13.599Z" fill="#3D3D3D"/>
<path fill-rule="evenodd" clip-rule="evenodd" d="M7.4498 14.7086C6.98542 16.1349 5.46136 16.9031 4.04906 16.4229C2.63651 15.9427 1.86691 14.395 2.33155 12.9687C3.81909 8.40047 6.21088 4.72441 9.71681 1.63948C10.8349 0.6554 12.5384 0.780995 13.5185 1.91976C14.4985 3.05852 14.3862 4.78182 13.2681 5.7659C10.5024 8.19965 8.62354 11.1048 7.4498 14.7086Z" fill="#3D3D3D"/>
</g>
<defs>
<clipPath id="clip0_478_3310">
<rect width="54" height="54" fill="white"/>
</clipPath>
</defs>
</svg>

<svg xmlns="http://www.w3.org/2000/svg" width="54" height="54" fill="none" viewBox="0 0 54 54"><g fill="#3d3d3d" fill-rule="evenodd" clip-path="url(#clip0_478_3310)" clip-rule="evenodd"><path d="M15.63 43.063c.475-.079.977-.03 1.454.17 6.907 2.879 12.738 2.672 17.252.64 6.55-2.945 10.267-9.624 10.267-15.343 0-9.556-7.65-17.314-17.073-17.314S10.456 18.974 10.456 28.53c0 1.507-1.206 2.73-2.691 2.73-1.486 0-2.692-1.223-2.692-2.73 0-12.568 10.063-22.771 22.457-22.771S49.987 15.96 49.987 28.53c0 5.908-2.947 12.631-8.369 17.143l2.124 3.98c.707 1.326.22 2.983-1.086 3.7a2.674 2.674 0 0 1-3.648-1.102l-1.944-3.642q-.27.13-.545.255c-5.285 2.377-12.026 2.938-19.962.014l-1.875 3.513a2.674 2.674 0 0 1-3.648 1.102c-1.307-.716-1.793-2.374-1.087-3.699l2.85-5.342a2.68 2.68 0 0 1 2.833-1.39m9.797-12.343a2.3 2.3 0 0 1-.305-1.13l-.094-12.522c-.01-1.255.988-2.282 2.226-2.291 1.238-.01 2.25 1.002 2.26 2.257l.078 10.41 5.655-.07c1.237-.009 2.25 1.003 2.26 2.258s-.989 2.282-2.227 2.291l-7.81.095a2.24 2.24 0 0 1-2.043-1.298"/><path d="M52.56 13.599c.464 1.426-.306 2.974-1.718 3.454a2.67 2.67 0 0 1-3.401-1.714c-1.174-3.604-3.053-6.509-5.818-8.942-1.119-.985-1.23-2.708-.25-3.847a2.676 2.676 0 0 1 3.8-.28c3.507 3.085 5.899 6.761 7.387 11.33"/><path d="M7.45 14.709a2.67 2.67 0 0 1-3.4 1.714 2.753 2.753 0 0 1-1.718-3.454C3.819 8.4 6.21 4.724 9.717 1.639a2.676 2.676 0 0 1 3.801.28c.98 1.14.868 2.863-.25 3.847-2.766 2.434-4.644 5.339-5.818 8.943"/></g><defs><clipPath id="clip0_478_3310"><path fill="#fff" d="M0 0h54v54H0z"/></clipPath></defs></svg>
